X: 21
T: How Near is the Mornging?
N: Derived from pawnee21.krn
O: Oklahoma, U.S.A.
N: from Pawnee Music by Frances Densmore, 1926
Z: transcribed to **kern format by David Huron, August 2000
C: Skidi and Chaui Bands, 1919
L: 1/4
M: 3/4
Q: 1/4=88
K: E clef=bass
%%linebreak <none>
D>CD[M:2/4] [I:setbarnb 2]| 
CC | 
CC | 
C2[M:3/4] | 
D>CD[M:2/4] | 
G,G,/ F,/ | 
G,/> G,/F, | 
E,C,[M:3/4] | 
C,C,C,[M:2/4] | 
F,/> F,/G, | 
E,C,[M:3/4] | 
C,C,C,[M:2/4] | 
C,/> C,/C, | 
C,C,[M:3/4] | 
C,C,C,[M:2/4] | 
G,/> G,/F, | 
E,C,[M:3/4] | 
C,C,C, :|]  



